glyphs/medium/parens-left.svg

<?xml version="1.0" encoding="UTF-8" standalone="no"?>
<!-- Created with Inkscape (http://www.inkscape.org/) -->

<svg
   xmlns:dc="http://purl.org/dc/elements/1.1/"
   xmlns:cc="http://creativecommons.org/ns#"
   xmlns:rdf="http://www.w3.org/1999/02/22-rdf-syntax-ns#"
   xmlns:svg="http://www.w3.org/2000/svg"
   xmlns="http://www.w3.org/2000/svg"
   xmlns:sodipodi="http://sodipodi.sourceforge.net/DTD/sodipodi-0.dtd"
   xmlns:inkscape="http://www.inkscape.org/namespaces/inkscape"
   width="1000"
   height="1000"
   id="svg3373"
   version="1.1"
   inkscape:version="0.48.2 r9819"
   sodipodi:docname="parens-left.svg">
  <defs
     id="defs3375" />
  <sodipodi:namedview
     id="base"
     pagecolor="#ffffff"
     bordercolor="#666666"
     borderopacity="1.0"
     inkscape:pageopacity="0.0"
     inkscape:pageshadow="2"
     inkscape:zoom="0.45057879"
     inkscape:cx="521.08454"
     inkscape:cy="435.50458"
     inkscape:document-units="px"
     inkscape:current-layer="layer1"
     showgrid="false"
     showguides="true"
     inkscape:guide-bbox="true"
     inkscape:window-width="1280"
     inkscape:window-height="752"
     inkscape:window-x="0"
     inkscape:window-y="0"
     inkscape:window-maximized="1">
    <sodipodi:guide
       orientation="0,1"
       position="453.98442,199.97922"
       id="guide3381" />
    <inkscape:grid
       type="xygrid"
       id="grid3420"
       empspacing="5"
       visible="true"
       enabled="true"
       snapvisiblegridlinesonly="true" />
  </sodipodi:namedview>
  <metadata
     id="metadata3378">
    <rdf:RDF>
      <cc:Work
         rdf:about="">
        <dc:format>image/svg+xml</dc:format>
        <dc:type
           rdf:resource="http://purl.org/dc/dcmitype/StillImage" />
        <dc:title />
      </cc:Work>
    </rdf:RDF>
  </metadata>
  <g
     inkscape:label="R"
     inkscape:groupmode="layer"
     id="layer1"
     transform="translate(0,-52.362183)">
    <path
       style="fill:#4d4d4d;fill-opacity:1;stroke:none;display:inline"
       d="M 384 0 C 352 0 319.9984 32.000003 320 61 L 320 736 C 320 768 352 800 384 800 L 512 800 L 512 704 L 448.09375 704 C 416.01375 703.99984 416 704 416 672 L 416 128 C 415.998 95.99888 416.0085 95.99888 447.5625 96 L 512 96 L 512 0 L 384 0 z "
       transform="translate(0,52.362183)"
       id="path4228" />
  </g>
</svg>

<?xml version="1.0" encoding="UTF-8" standalone="no"?>
<!-- Created with Inkscape (http://www.inkscape.org/) -->

<svg
   xmlns:dc="http://purl.org/dc/elements/1.1/"
   xmlns:cc="http://creativecommons.org/ns#"
   xmlns:rdf="http://www.w3.org/1999/02/22-rdf-syntax-ns#"
   xmlns:svg="http://www.w3.org/2000/svg"
   xmlns="http://www.w3.org/2000/svg"
   xmlns:sodipodi="http://sodipodi.sourceforge.net/DTD/sodipodi-0.dtd"
   xmlns:inkscape="http://www.inkscape.org/namespaces/inkscape"
   width="1000"
   height="1000"
   id="svg3373"
   version="1.1"
   inkscape:version="0.48.2 r9819"
   sodipodi:docname="parens-left.svg">
  <defs
     id="defs3375" />
  <sodipodi:namedview
     id="base"
     pagecolor="#ffffff"
     bordercolor="#666666"
     borderopacity="1.0"
     inkscape:pageopacity="0.0"
     inkscape:pageshadow="2"
     inkscape:zoom="1"
     inkscape:cx="456.18296"
     inkscape:cy="797.86751"
     inkscape:document-units="px"
     inkscape:current-layer="layer1"
     showgrid="false"
     showguides="true"
     inkscape:guide-bbox="true"
     inkscape:window-width="1280"
     inkscape:window-height="752"
     inkscape:window-x="68"
     inkscape:window-y="0"
     inkscape:window-maximized="0">
    <sodipodi:guide
       orientation="0,1"
       position="453.98442,199.97922"
       id="guide3381" />
    <inkscape:grid
       type="xygrid"
       id="grid3420"
       empspacing="5"
       visible="true"
       enabled="true"
       snapvisiblegridlinesonly="true" />
  </sodipodi:namedview>
  <metadata
     id="metadata3378">
    <rdf:RDF>
      <cc:Work
         rdf:about="">
        <dc:format>image/svg+xml</dc:format>
        <dc:type
           rdf:resource="http://purl.org/dc/dcmitype/StillImage" />
        <dc:title />
      </cc:Work>
    </rdf:RDF>
  </metadata>
  <g
     inkscape:label="R"
     inkscape:groupmode="layer"
     id="layer1"
     transform="translate(0,-52.362183)">
    <path
       style="fill:#4d4d4d;fill-opacity:1;stroke:none;display:inline"
       d="m 384,0 c -32,0 -64.0016,32.000003 -64,61 l 0,675 c 0,32 32,64 64,64 l 128,0 0,-96 -64,0 c -32.08,0 -32,0 -32,-32 l 0,-544 c -0.002,-32.00112 0,-32 32,-32 l 64,0 0,-96 z"
       transform="translate(0,52.362183)"
       id="path4228"
       inkscape:connector-curvature="0"
       sodipodi:nodetypes="scssccssccccs" />
  </g>
</svg>
